assets/svg/icon_login_authcode.svg

<svg width="24" height="24" viewBox="0 0 24 24" fill="none" xmlns="http://www.w3.org/2000/svg">
<path d="M7.85 8C7.85 7.64102 7.55899 7.35 7.2 7.35C6.84102 7.35 6.55 7.64101 6.55 8H7.85ZM6.55 16C6.55 16.359 6.84101 16.65 7.2 16.65C7.55898 16.65 7.85 16.359 7.85 16H6.55ZM15.1404 9.54038C14.8865 9.79422 14.8865 10.2058 15.1404 10.4596C15.3942 10.7135 15.8058 10.7135 16.0596 10.4596L15.1404 9.54038ZM17.2596 9.25962C17.5135 9.00578 17.5135 8.59422 17.2596 8.34038C17.0058 8.08654 16.5942 8.08654 16.3404 8.34038L17.2596 9.25962ZM9.94038 14.7404C9.68654 14.9942 9.68654 15.4058 9.94038 15.6596C10.1942 15.9135 10.6058 15.9135 10.8596 15.6596L9.94038 14.7404ZM12.0596 14.4596C12.3135 14.2058 12.3135 13.7942 12.0596 13.5404C11.8058 13.2865 11.3942 13.2865 11.1404 13.5404L12.0596 14.4596ZM11.1404 10.4596C11.3942 10.7135 11.8058 10.7135 12.0596 10.4596C12.3135 10.2058 12.3135 9.79422 12.0596 9.54038L11.1404 10.4596ZM10.8596 8.34038C10.6058 8.08654 10.1942 8.08654 9.94038 8.34038C9.68654 8.59422 9.68654 9.00578 9.94038 9.25962L10.8596 8.34038ZM16.3404 15.6596C16.5942 15.9135 17.0058 15.9135 17.2596 15.6596C17.5135 15.4058 17.5135 14.9942 17.2596 14.7404L16.3404 15.6596ZM16.0596 13.5404C15.8058 13.2865 15.3942 13.2865 15.1404 13.5404C14.8865 13.7942 14.8865 14.2058 15.1404 14.4596L16.0596 13.5404ZM12 19.35C10.096 19.35 8.7334 19.3486 7.69752 19.2093C6.68035 19.0726 6.07608 18.8137 5.63119 18.3688L4.71195 19.288C5.43864 20.0147 6.36297 20.3416 7.5243 20.4978C8.66694 20.6514 10.1328 20.65 12 20.65V19.35ZM3.35 12C3.35 13.8672 3.34862 15.3331 3.50224 16.4757C3.65838 17.637 3.98527 18.5614 4.71195 19.288L5.63119 18.3688C5.18631 17.9239 4.92741 17.3197 4.79065 16.3025C4.65138 15.2666 4.65 13.904 4.65 12H3.35ZM19.35 12C19.35 13.904 19.3486 15.2666 19.2093 16.3025C19.0726 17.3197 18.8137 17.9239 18.3688 18.3688L19.288 19.288C20.0147 18.5614 20.3416 17.637 20.4978 16.4757C20.6514 15.3331 20.65 13.8672 20.65 12H19.35ZM12 20.65C13.8672 20.65 15.3331 20.6514 16.4757 20.4978C17.637 20.3416 18.5614 20.0147 19.288 19.288L18.3688 18.3688C17.9239 18.8137 17.3197 19.0726 16.3025 19.2093C15.2666 19.3486 13.904 19.35 12 19.35V20.65ZM12 4.65C13.904 4.65 15.2666 4.65138 16.3025 4.79065C17.3197 4.92741 17.9239 5.18631 18.3688 5.63119L19.288 4.71195C18.5614 3.98527 17.637 3.65838 16.4757 3.50224C15.3331 3.34862 13.8672 3.35 12 3.35V4.65ZM20.65 12C20.65 10.1328 20.6514 8.66694 20.4978 7.5243C20.3416 6.36297 20.0147 5.43864 19.288 4.71195L18.3688 5.63119C18.8137 6.07608 19.0726 6.68035 19.2093 7.69752C19.3486 8.7334 19.35 10.096 19.35 12H20.65ZM12 3.35C10.1328 3.35 8.66694 3.34862 7.5243 3.50224C6.36297 3.65838 5.43864 3.98527 4.71195 4.71195L5.63119 5.63119C6.07608 5.18631 6.68035 4.92741 7.69752 4.79065C8.7334 4.65138 10.096 4.65 12 4.65V3.35ZM4.65 12C4.65 10.096 4.65138 8.7334 4.79065 7.69752C4.92741 6.68035 5.18631 6.07608 5.63119 5.63119L4.71195 4.71195C3.98527 5.43864 3.65838 6.36297 3.50224 7.5243C3.34862 8.66694 3.35 10.1328 3.35 12H4.65ZM6.55 8L6.55 16H7.85L7.85 8H6.55ZM13.6 13.75C12.6335 13.75 11.85 12.9665 11.85 12H10.55C10.55 13.6845 11.9155 15.05 13.6 15.05V13.75ZM15.35 12C15.35 12.9665 14.5665 13.75 13.6 13.75V15.05C15.2845 15.05 16.65 13.6845 16.65 12H15.35ZM13.6 10.25C14.5665 10.25 15.35 11.0335 15.35 12H16.65C16.65 10.3155 15.2845 8.95 13.6 8.95V10.25ZM13.6 8.95C11.9155 8.95 10.55 10.3155 10.55 12H11.85C11.85 11.0335 12.6335 10.25 13.6 10.25V8.95ZM16.0596 10.4596L17.2596 9.25962L16.3404 8.34038L15.1404 9.54038L16.0596 10.4596ZM10.8596 15.6596L12.0596 14.4596L11.1404 13.5404L9.94038 14.7404L10.8596 15.6596ZM12.0596 9.54038L10.8596 8.34038L9.94038 9.25962L11.1404 10.4596L12.0596 9.54038ZM17.2596 14.7404L16.0596 13.5404L15.1404 14.4596L16.3404 15.6596L17.2596 14.7404Z" fill="#494949"/>
</svg>

<svg xmlns="http://www.w3.org/2000/svg" width="24" height="24" fill="none"><path fill="#494949" d="M7.85 8a.65.65 0 0 0-1.3 0zm-1.3 8a.65.65 0 1 0 1.3 0zm8.59-6.46a.65.65 0 1 0 .92.92zm2.12-.28a.65.65 0 1 0-.92-.92zm-7.32 5.48a.65.65 0 1 0 .92.92zm2.12-.28a.65.65 0 1 0-.92-.92zm-.92-4a.65.65 0 1 0 .92-.92zm-.28-2.12a.65.65 0 1 0-.92.92zm5.48 7.32a.65.65 0 1 0 .92-.92zm-.28-2.12a.65.65 0 1 0-.92.92zM12 19.35c-1.904 0-3.267-.001-4.302-.14-1.018-.137-1.622-.396-2.067-.841l-.92.919c.728.727 1.652 1.054 2.813 1.21 1.143.153 2.609.152 4.476.152zM3.35 12c0 1.867-.001 3.333.152 4.476.156 1.161.483 2.085 1.21 2.812l.92-.92c-.446-.444-.705-1.048-.841-2.065-.14-1.036-.141-2.399-.141-4.303zm16 0c0 1.904-.001 3.267-.14 4.302-.137 1.018-.396 1.622-.841 2.067l.919.919c.727-.727 1.054-1.651 1.21-2.812.153-1.143.152-2.609.152-4.476zM12 20.65c1.867 0 3.333.001 4.476-.152 1.161-.156 2.085-.483 2.812-1.21l-.92-.92c-.444.446-1.048.705-2.065.841-1.036.14-2.399.141-4.303.141zm0-16c1.904 0 3.267.001 4.302.14 1.018.137 1.622.396 2.067.841l.919-.92c-.727-.726-1.651-1.053-2.812-1.209C15.333 3.35 13.867 3.35 12 3.35zM20.65 12c0-1.867.001-3.333-.152-4.476-.156-1.161-.483-2.085-1.21-2.812l-.92.92c.446.444.705 1.048.841 2.066.14 1.035.141 2.398.141 4.302zM12 3.35c-1.867 0-3.333-.001-4.476.152-1.161.156-2.085.483-2.812 1.21l.92.92c.444-.446 1.048-.705 2.066-.841C8.733 4.65 10.096 4.65 12 4.65zM4.65 12c0-1.904.001-3.267.14-4.302.137-1.018.396-1.622.841-2.067l-.92-.92c-.726.728-1.053 1.652-1.209 2.813C3.35 8.667 3.35 10.133 3.35 12zm1.9-4v8h1.3V8zm7.05 5.75A1.75 1.75 0 0 1 11.85 12h-1.3a3.05 3.05 0 0 0 3.05 3.05zM15.35 12a1.75 1.75 0 0 1-1.75 1.75v1.3A3.05 3.05 0 0 0 16.65 12zm-1.75-1.75c.966 0 1.75.784 1.75 1.75h1.3a3.05 3.05 0 0 0-3.05-3.05zm0-1.3A3.05 3.05 0 0 0 10.55 12h1.3c0-.966.784-1.75 1.75-1.75zm2.46 1.51 1.2-1.2-.92-.92-1.2 1.2zm-5.2 5.2 1.2-1.2-.92-.92-1.2 1.2zm1.2-6.12-1.2-1.2-.92.92 1.2 1.2zm5.2 5.2-1.2-1.2-.92.92 1.2 1.2z"/></svg>
